icons/Favorites(Outlined)-Small.svg

<svg width="24" height="24" viewBox="0 0 24 24" fill="none" xmlns="http://www.w3.org/2000/svg">
<path fill-rule="evenodd" clip-rule="evenodd" d="M7.96416 6.79C8.21173 6.78957 8.45676 6.83993 8.68409 6.93798C8.91142 7.03602 9.11622 7.17965 9.28583 7.36L10.3692 8.4825L11.9983 10.2017L13.6275 8.4825L14.7108 7.36917C14.877 7.1893 15.0785 7.04576 15.3028 6.94759C15.5271 6.84942 15.7693 6.79874 16.0142 6.79874C16.259 6.79874 16.5012 6.84942 16.7255 6.94759C16.9498 7.04576 17.1514 7.1893 17.3175 7.36917C17.7937 7.87319 18.059 8.54033 18.059 9.23375C18.059 9.92717 17.7937 10.5943 17.3175 11.0983L11.9958 16.6283L6.66083 11.0883C6.18461 10.5843 5.91929 9.91717 5.91929 9.22375C5.91929 8.53033 6.18461 7.86319 6.66083 7.35917C6.82725 7.18216 7.0276 7.04048 7.24994 6.94255C7.47229 6.84462 7.71207 6.79246 7.955 6.78917L7.96416 6.79ZM7.955 4.5275C7.40957 4.52777 6.86976 4.63759 6.36759 4.85045C5.86542 5.06332 5.41113 5.37488 5.03166 5.76667C4.15534 6.69554 3.66722 7.92425 3.66722 9.20125C3.66722 10.4783 4.15534 11.707 5.03166 12.6358L11.675 19.5525C11.7615 19.6387 11.8787 19.6871 12.0008 19.6871C12.123 19.6871 12.2401 19.6387 12.3267 19.5525L18.97 12.6358C19.8463 11.707 20.3344 10.4783 20.3344 9.20125C20.3344 7.92425 19.8463 6.69554 18.97 5.76667C18.5921 5.36904 18.1372 5.05243 17.6331 4.83608C17.1289 4.61973 16.5861 4.50816 16.0375 4.50816C15.4889 4.50816 14.9461 4.61973 14.4419 4.83608C13.9378 5.05243 13.4829 5.36904 13.105 5.76667L12 6.94333L10.8958 5.76667C10.5184 5.36805 10.0639 5.05024 9.55997 4.8325C9.05604 4.61477 8.51313 4.50165 7.96416 4.5L7.955 4.5275Z" fill="black"/>
</svg>

<svg xmlns="http://www.w3.org/2000/svg" viewBox="0 0 24 24">
  <path d="M7.964 6.79a1.81 1.81 0 011.322.57l1.083 1.122 1.63 1.72 1.628-1.72 1.084-1.113a1.775 1.775 0 012.606 0 2.715 2.715 0 010 3.73l-5.321 5.53-5.335-5.54a2.715 2.715 0 010-3.73 1.81 1.81 0 011.294-.57l.01.001zm-.009-2.263a4.073 4.073 0 00-2.923 1.24 5.005 5.005 0 000 6.869l6.643 6.916a.462.462 0 00.652 0l6.643-6.916a5.005 5.005 0 000-6.87 4.046 4.046 0 00-5.865 0L12 6.944l-1.104-1.176A4.054 4.054 0 007.964 4.5l-.009.027z"/>
</svg>
